!!!COM: Schubert, Franz
!!!CNT: Deutscher
!!!TXO: Deutsch
!!!OTL: "Danksagung an den Bach"
!!!OPR: Die schoene Muellerin
!!!LYR: Mu2ller, Wilhelm
!!!OPS: Opus 25
!!!ONM: No. 4
!!!ODT: 1823/
!!NB: Vocal melody only encoded.
**kern	**silbe
*clefG4	*
*k[f#]	*
*M2/4	*
*MM[langsam]	*
=4	=4
4r	.
8r	.
{16b	{War
16cc	es
=5	=5
8dd	al-
16b	-so
16g	ge-
8.f#}	-meint,}
{16f#	{mein
=6	=6
16g	rau-
16b	|
16dd	-schen-
16ee	-der
8.dd	Freund,
16dd	dein
=7	=7
16ee	Sin-
16dd	|
16b	-gen,
16g	dein
16g	Klin-
16f#	|
8f#}	-gen}
=8	=8
8r	.
{16b	{war
16cc	es
8dd	al-
16ff#	-so
16ff#	ge-
=9	=9
8gg	-meint,
16b	war
16cc	es
8dd	al-
16f#	-so
16f#	ge-
=10	=10
8g}	-meint?}
8r	.
8r	.
{8dd	{Zur
=11	=11
16cc#	Mu2l-
16gg	|
16cc#	-le-
16cc#	-rin
8.dd	hin,
16dd	so
=12	=12
16dd	lau-
16ffn	|
16dd	-tet
16b	der
4cc	Sinn;
=13	=13
2ee}	gelt,}
=14	=14
{8ee	{hab'
16b	ich's
16b	ver-
8cc	-stan-
8ee	-den,
=15	=15
8dd	hab'
16a	ich's
16a	ver-
8b	-stan-
8dd}	-den?}
=16	=16
8r	.
{16b	{zur
16cc	|
8dd	Mu2l-
16ff#	-le-
16ff#	-rin
=17	=17
8gg	hin,
16b	zur
16cc	|
8dd	Mu2l-
16f#	-le-
16f#	-rin
=18	=18
8g}	hin!}
8r	.
4r	.
=21	=21
4r	.
8.r	.
{16dd	{Hat
=22	=22
8dd	sie
16b-	dich
16g	ge-
8f#	-schickt,
16f#	o-
16f#	-der
=23	=23
8g	hast
16b-	mich
16ee-	be-
8.dd}	-ru2ckt?}
{16dd	{das
=24	=24
8dd	mo2cht'
16cc	ich
16b-	noch
8a	wis-
16dd	-sen,
16dd	ob
=25	=25
8ffn	sie
16ee-	dich
16cc	ge-
8.b-	-schickt,
16dd	ob
=26	=26
8ffn	sie
16ee-	dich
16cc	ge-
8b-}	-schickt.}
8r	.
=27	=27
4r	.
8.r	.
{16dd	{Nun
=28	=28
16dd	wie's
16een	|
16dd	auch
16cc	mag
8.b	sein,
16dd	ich
=29	=29
8ffn	ge-
16b	-be
16b	mich
8cc}	d'rein;}
{16cc	{was
16dd	ich
=30	=30
8ee	such,
16ee	hab'
16dd	ich
16dd	fun-
16cc	|
16b	-den,
16a	wie's
=31	=31
16dd	im-
16ee	|
16dd	-mer
16cc	mag
8b}	sein.}
8r	.
=32	=32
4r	.
8r	.
{16b	{Nach
16cc	|
=33	=33
8dd	Ar-
16b	-beit
16g	ich
8.f#	frug,
16f#	nun
=34	=34
16g	hab'
16b	|
16dd	-ich
16ee	ge-
8dd}	-nug,}
{16dd	{fu2r
16dd	die
=35	=35
16ee	Ha2n-
16dd	|
16b	-de,
16g	fu2r's
16g	Her-
16f#	|
8f#}	-ze}
=36	=36
8r	.
{16b	{voll-
16cc	|
8.dd	-auf
16ff#	ge-
=37	=37
8gg	-nug,
16b	voll-
16cc	|
8.dd	-auf
16f#	ge-
=38	=38
8g}	-nug.}
8r	.
4r	.
*-	*-
